X:1
T:Into The West
C:Howard Shore
Z:Merecraft of Laurelin
Q:1/4=92
M:4/4
L:1/8
K:C
g c2 g c4 |g c2 g c4 |c2 c G2 E C2 |G,D, G,D, B,2 G,2 |D,A, DG Ac cd |c2 A,E, C2 A,2 |C,G, CG, E2 cA |d d2 G,D, B,2 G,2 |D,A, Dd/e/ dc Ac |e2 A,E, C2 A,2 |C,G, CG, f3/2e/ d2 |d2 G,D, B,2 G,2 |d3 d/e/ dc Ac |
e2 A,E, C2 A,2 |C,G, CG, E2 cA |c2 d2 B,2 G,2 |D,A, Dd/e/ dc AG |A4 C2 A,2 |A,E, A,E, AB Ac |c2 G,E, C2 G,2 |F,C, F,C, AB Ac |c3 c B2 GA |A4 AB Ac |c2 G,E, C2 G,2 |F,C, F,C, AB Ac |c3 c d2 ce |e4 ec dc |
c2 G,E, C2 G,2 |F,C, F,C, c3/2d3/2 c |e3 d d4 |z2 g2 e2 d2 |e2 CG, E2 C2 |F,C, c'2 b2 a2 |a2 g2 A,2 F,2 |C,G, f2 e2 d2 |e2 CG, g2 C2 |g2 c2 B2 A2 |A2 G,D, B2 G,2 |C,G, f2 e2 d2 |e2 CG, E2 C2 |F,C, c'2 b2 a2 |
a2 g2 A,2 F,2 |C,G, f2 e2 d2 |e3 e2 e fg |d2 c2 B2 A2 |A B2 c c2 B2 |A,E, A,A a3 a |g2 E,B, G,2 F,2 |D,A, f2 f2 e2 |d2 G,D, B,2 G,2 |A,E, B,a a2 ba |a2 g2 C2 G,2 |f2 F,G, e2 C2 |d4 dc B2 |c2 CG, DG, CG, |
g c2 g c4 |g c2 g c4 |]
%End of file
